packages/tokens/icons/links/size16Px.svg

<svg viewBox="0 0 16 16" fill="none" xmlns="http://www.w3.org/2000/svg" width="1em" height="1em"><path d="M6.70697 8.77816V8.77816C7.48802 9.55921 8.75435 9.55921 9.5354 8.77816L13.0709 5.24262C13.852 4.46158 13.852 3.19525 13.0709 2.4142V2.4142C12.2899 1.63315 11.0235 1.63315 10.2425 2.4142L8.47473 4.18196" stroke="currentColor" stroke-linecap="round"/><path d="M8.77812 6.70718V6.70718C7.99707 5.92613 6.73074 5.92613 5.94969 6.70718L2.41416 10.2427C1.63311 11.0238 1.63311 12.2901 2.41416 13.0711V13.0711C3.1952 13.8522 4.46153 13.8522 5.24258 13.0711L7.01035 11.3034" stroke="currentColor" stroke-linecap="round"/></svg>

<svg xmlns="http://www.w3.org/2000/svg" fill="none" viewBox="0 0 16 16" width="1em" height="1em"><path stroke="currentColor" stroke-linecap="round" d="M6.707 8.778v0a2 2 0 0 0 2.828 0l3.536-3.535a2 2 0 0 0 0-2.829v0a2 2 0 0 0-2.829 0L8.476 4.182"/><path stroke="currentColor" stroke-linecap="round" d="M8.778 6.707v0a2 2 0 0 0-2.828 0l-3.536 3.536a2 2 0 0 0 0 2.828v0a2 2 0 0 0 2.829 0l1.767-1.768"/></svg>
